www/assets/icons/abc.svg

<svg xmlns="http://www.w3.org/2000/svg" width="24" height="24" viewBox="0 0 24 24" fill='currentColor'><path d="M21 11h-1.5v-.5h-2v3h2V13H21v1c0 .55-.45 1-1 1h-3c-.55 0-1-.45-1-1v-4c0-.55.45-1 1-1h3c.55 0 1 .45 1 1zM8 10v5H6.5v-1.5h-2V15H3v-5c0-.55.45-1 1-1h3c.55 0 1 .45 1 1m-1.5.5h-2V12h2zm7 1.5c.55 0 1 .45 1 1v1c0 .55-.45 1-1 1h-4V9h4c.55 0 1 .45 1 1v1c0 .55-.45 1-1 1M11 10.5v.75h2v-.75zm2 2.25h-2v.75h2z"/></svg>

<svg width="24" height="24" viewBox="0 0 24 24" xmlns="http://www.w3.org/2000/svg" fill='currentColor'><path d="M21 11H19.5V10.5H17.5V13.5H19.5V13H21V14C21 14.55 20.55 15 20 15H17C16.45 15 16 14.55 16 14V10C16 9.45 16.45 9 17 9H20C20.55 9 21 9.45 21 10V11ZM8 10V15H6.5V13.5H4.5V15H3V10C3 9.45 3.45 9 4 9H7C7.55 9 8 9.45 8 10ZM6.5 10.5H4.5V12H6.5V10.5ZM13.5 12C14.05 12 14.5 12.45 14.5 13V14C14.5 14.55 14.05 15 13.5 15H9.5V9H13.5C14.05 9 14.5 9.45 14.5 10V11C14.5 11.55 14.05 12 13.5 12ZM11 10.5V11.25H13V10.5H11ZM13 12.75H11V13.5H13V12.75Z"/></svg>
